src/components/00-materials/images-raw/Calculator.svg

<svg width="96" height="96" viewBox="0 0 96 96" fill="none" xmlns="http://www.w3.org/2000/svg">
<path d="M68 14H28C25.7909 14 24 15.7909 24 18V78C24 80.2091 25.7909 82 28 82H68C70.2091 82 72 80.2091 72 78V18C72 15.7909 70.2091 14 68 14Z" stroke="#00008F" stroke-width="2" stroke-linecap="round" stroke-linejoin="round"/>
<path d="M37 39H31C30.4477 39 30 39.4477 30 40V46C30 46.5523 30.4477 47 31 47H37C37.5523 47 38 46.5523 38 46V40C38 39.4477 37.5523 39 37 39Z" stroke="#00008F" stroke-width="2" stroke-linecap="round" stroke-linejoin="round"/>
<path d="M65 20H31C30.4477 20 30 20.4477 30 21V31C30 31.5523 30.4477 32 31 32H65C65.5523 32 66 31.5523 66 31V21C66 20.4477 65.5523 20 65 20Z" stroke="#00008F" stroke-width="2" stroke-linecap="round" stroke-linejoin="round"/>
<path d="M51 39H45C44.4477 39 44 39.4477 44 40V46C44 46.5523 44.4477 47 45 47H51C51.5523 47 52 46.5523 52 46V40C52 39.4477 51.5523 39 51 39Z" stroke="#00008F" stroke-width="2" stroke-linecap="round" stroke-linejoin="round"/>
<path d="M65 39H59C58.4477 39 58 39.4477 58 40V46C58 46.5523 58.4477 47 59 47H65C65.5523 47 66 46.5523 66 46V40C66 39.4477 65.5523 39 65 39Z" stroke="#00008F" stroke-width="2" stroke-linecap="round" stroke-linejoin="round"/>
<path d="M37 53H31C30.4477 53 30 53.4477 30 54V60C30 60.5523 30.4477 61 31 61H37C37.5523 61 38 60.5523 38 60V54C38 53.4477 37.5523 53 37 53Z" stroke="#00008F" stroke-width="2" stroke-linecap="round" stroke-linejoin="round"/>
<path d="M51 53H45C44.4477 53 44 53.4477 44 54V60C44 60.5523 44.4477 61 45 61H51C51.5523 61 52 60.5523 52 60V54C52 53.4477 51.5523 53 51 53Z" stroke="#00008F" stroke-width="2" stroke-linecap="round" stroke-linejoin="round"/>
<path d="M37 67H31C30.4477 67 30 67.4477 30 68V74C30 74.5523 30.4477 75 31 75H37C37.5523 75 38 74.5523 38 74V68C38 67.4477 37.5523 67 37 67Z" stroke="#00008F" stroke-width="2" stroke-linecap="round" stroke-linejoin="round"/>
<path d="M51 67H45C44.4477 67 44 67.4477 44 68V74C44 74.5523 44.4477 75 45 75H51C51.5523 75 52 74.5523 52 74V68C52 67.4477 51.5523 67 51 67Z" stroke="#00008F" stroke-width="2" stroke-linecap="round" stroke-linejoin="round"/>
<path d="M65 53H59C58.4477 53 58 53.4477 58 54V74C58 74.5523 58.4477 75 59 75H65C65.5523 75 66 74.5523 66 74V54C66 53.4477 65.5523 53 65 53Z" stroke="#00008F" stroke-width="2" stroke-linecap="round" stroke-linejoin="round"/>
</svg>

<svg width="96" height="96" viewBox="0 0 96 96" fill="none" xmlns="http://www.w3.org/2000/svg"><path d="M68 14H28a4 4 0 00-4 4v60a4 4 0 004 4h40a4 4 0 004-4V18a4 4 0 00-4-4z" stroke="#00008F" stroke-width="2" stroke-linecap="round" stroke-linejoin="round"/><path d="M37 39h-6a1 1 0 00-1 1v6a1 1 0 001 1h6a1 1 0 001-1v-6a1 1 0 00-1-1zM65 20H31a1 1 0 00-1 1v10a1 1 0 001 1h34a1 1 0 001-1V21a1 1 0 00-1-1zM51 39h-6a1 1 0 00-1 1v6a1 1 0 001 1h6a1 1 0 001-1v-6a1 1 0 00-1-1zM65 39h-6a1 1 0 00-1 1v6a1 1 0 001 1h6a1 1 0 001-1v-6a1 1 0 00-1-1zM37 53h-6a1 1 0 00-1 1v6a1 1 0 001 1h6a1 1 0 001-1v-6a1 1 0 00-1-1zM51 53h-6a1 1 0 00-1 1v6a1 1 0 001 1h6a1 1 0 001-1v-6a1 1 0 00-1-1zM37 67h-6a1 1 0 00-1 1v6a1 1 0 001 1h6a1 1 0 001-1v-6a1 1 0 00-1-1zM51 67h-6a1 1 0 00-1 1v6a1 1 0 001 1h6a1 1 0 001-1v-6a1 1 0 00-1-1zM65 53h-6a1 1 0 00-1 1v20a1 1 0 001 1h6a1 1 0 001-1V54a1 1 0 00-1-1z" stroke="#00008F" stroke-width="2" stroke-linecap="round" stroke-linejoin="round"/></svg>
